svgs/sharp-light/hockey-sticks.svg

<svg xmlns="http://www.w3.org/2000/svg" viewBox="0 0 640 512"><!--! Font Awesome Pro 6.6.0 by @fontawesome - https://fontawesome.com License - https://fontawesome.com/license (Commercial License) Copyright 2024 Fonticons, Inc. --><path d="M320.9 320L481.8 8.7l28.4 14.7-248 480-4.5 8.7-9.7 0L16 512 0 512l0-16L0 336l0-16 16 0 304.9 0zm-16.5 32L128 352l0 128 110.3 0 66.1-128zM32 352l0 128 64 0 0-128-64 0zM156.4 8.7L300.8 288l-36 0L128 23.3 156.4 8.7zM376 503.3l-38.9-75.3 18-34.9L400 480l110.3 0 0-128-133.8 0L393 320l229.3 0 16 0 0 16 0 160 0 16-16 0-232 0-9.7 0-4.5-8.7zM542.2 352l0 128 64 0 0-128-64 0z"/></svg>

<svg xmlns="http://www.w3.org/2000/svg" viewBox="0 0 640 512"><!--! Font Awesome Pro 6.4.2 by @fontawesome - https://fontawesome.com License - https://fontawesome.com/license (Commercial License) Copyright 2023 Fonticons, Inc. --><path d="M320.9 320L481.8 8.7l28.4 14.7-248 480-4.5 8.7H248 16 0V496 336 320H16 320.9zm-16.5 32H128V480H238.3l66.1-128zM32 352V480H96V352H32zM156.4 8.7L300.8 288h-36L128 23.3 156.4 8.7zM376 503.3l-38.9-75.3 18-34.9L400 480H510.2V352H376.4L393 320H622.2h16v16V496v16h-16-232-9.7l-4.5-8.7zM542.2 352V480h64V352h-64z"/></svg>
